media/img/noun-grape.svg

<svg width="560" height="585" viewBox="0 0 560 585" fill="none" xmlns="http://www.w3.org/2000/svg">
<g clip-path="url(#clip0_623_4298)">
<path fill-rule="evenodd" clip-rule="evenodd" d="M228.235 108.778C221.677 110.9 215.955 113.703 210.979 116.89C216.506 63.8008 238.56 -15.9823 323.118 16.7759C330.181 19.5118 245.53 39.674 228.234 108.778L228.235 108.778Z" fill="url(#paint0_linear_623_4298)" fill-opacity="0.15"/>
<path fill-rule="evenodd" clip-rule="evenodd" d="M355.707 560.048C371.324 546.088 383.476 527.046 390.263 502.23C419.393 395.722 357.982 329.163 305.583 283.044C288.224 267.76 282.568 252.376 277.451 235.004C273.432 221.379 269.765 206.655 262.789 190.076C251.628 163.544 230.088 146.523 207.223 137.956C214.842 129.873 226.212 122.238 242.861 119.535C278.34 113.775 324.128 116.051 354.7 176.417C385.271 236.787 399.201 248.992 464.721 309.353C530.244 369.714 520.258 445.583 490.434 491.98C461.216 537.447 413.632 567.876 355.701 560.048L355.707 560.048Z" fill="url(#paint1_linear_623_4298)" fill-opacity="0.15"/>
<path fill-rule="evenodd" clip-rule="evenodd" d="M162.622 131.736C138.041 85.4971 83.0678 8.49843 14.8118 76.7501C9.08095 82.481 107.361 64.0692 147.224 135.365C152.662 133.419 156.188 132.692 156.188 132.692C156.242 132.679 156.301 132.667 156.359 132.654C158.385 132.266 160.478 131.957 162.62 131.735L162.622 131.736Z" fill="url(#paint2_linear_623_4298)" fill-opacity="0.15"/>
<path fill-rule="evenodd" clip-rule="evenodd" d="M110.537 158.276C94.3304 164.488 78.6586 173.514 69.5566 186.525C32.8869 238.98 54.1682 283.039 44.445 319.504C34.7209 355.966 1.66413 405.855 8.18905 455.467C16.3634 517.62 51.3206 572.609 138.431 580.405C170.861 583.307 195.989 584.072 215.839 583.558C191.491 576.683 168.577 565.179 150.21 550.243C119.534 525.298 104.999 490.546 98.1317 458.42C89.3183 417.177 93.2655 385.416 96.6739 352.309C99.8025 321.943 102.38 290.348 91.6532 247.609C84.4479 218.896 87.5973 197.23 94.9572 180.923C99.0506 171.847 104.531 164.391 110.537 158.284L110.537 158.276Z" fill="url(#paint3_linear_623_4298)" fill-opacity="0.15"/>
<path fill-rule="evenodd" clip-rule="evenodd" d="M149.919 149.102C130.722 156.336 88.9816 179.832 105.138 244.22C127.576 333.628 94.8164 376.397 111.725 455.504C117.99 484.823 130.985 516.68 158.983 539.453C223.693 592.079 349.544 598.42 376.865 498.561C404.174 398.702 345.533 336.721 296.408 293.468C263.468 264.472 266.856 235.554 249.985 195.455C234.075 157.637 193.555 142.382 164.182 145.531C180.151 169.152 276.673 319.925 280.972 519.864C281.059 523.698 278.01 526.881 274.176 526.965C270.341 527.044 267.158 524.003 267.075 520.16C262.48 306.662 150.649 150.394 150.649 150.394C150.352 149.98 150.11 149.55 149.922 149.099L149.919 149.102ZM199.817 353.04C203.464 351.912 207.499 352.497 211.246 354.928C215.131 357.447 218.84 362.229 220.749 368.399C222.662 374.573 222.29 380.617 220.506 384.89C218.786 389.013 215.791 391.765 212.136 392.897C208.489 394.025 204.454 393.44 200.707 391.009C196.822 388.491 193.113 383.712 191.204 377.538C189.296 371.365 189.663 365.32 191.447 361.056C193.168 356.925 196.163 354.172 199.817 353.044L199.817 353.04ZM276.917 343.596C280.563 342.468 284.598 343.053 288.345 345.484C292.23 348.003 295.939 352.781 297.848 358.955C299.757 365.129 299.389 371.173 297.606 375.437C295.885 379.56 292.89 382.321 289.235 383.449C285.588 384.577 281.554 383.992 277.806 381.561C273.922 379.042 270.212 374.26 268.304 368.085C266.395 361.92 266.762 355.876 268.546 351.603C270.267 347.48 273.262 344.719 276.917 343.596L276.917 343.596Z" fill="url(#paint4_linear_623_4298)" fill-opacity="0.15"/>
<path fill-rule="evenodd" clip-rule="evenodd" d="M316.742 80.1828C318.947 79.5897 337.359 74.7445 362.956 71.9584C363.386 72.1505 363.85 72.2925 364.339 72.3886C364.339 72.3886 395.921 78.7794 422.57 104.297C425.344 106.953 429.742 106.853 432.398 104.088C435.047 101.314 434.955 96.9077 432.181 94.2595C420.673 83.2403 408.335 75.43 397.525 70.0033C427.591 69.9741 461.153 74.6314 489.067 90.349C492.409 92.2328 496.648 91.0424 498.532 87.7008C500.416 84.355 499.23 80.1153 495.888 78.2315C478.541 68.4657 459.139 62.6891 439.625 59.5561C444.315 57.4383 450.117 55.659 456.867 55.1912C460.693 54.9238 463.584 51.6031 463.316 47.777C463.049 43.9509 459.728 41.0605 455.902 41.3278C436.208 42.6936 422.758 52.8517 417.95 57.0872C371.878 53.8668 329.319 62.8514 316.646 65.8798C333.964 49.8113 393.875 1.42521 465.783 24.8078C502.54 36.7583 524.967 59.6811 545.229 96.2717C556.402 116.446 560.02 134.065 560.02 134.065C560.02 134.065 513.814 107.006 465.783 123.348C417.76 139.696 369.67 127.55 351.463 115.415C338.155 106.539 324.154 90.938 316.744 80.1786L316.742 80.1828Z" fill="url(#paint5_linear_623_4298)" fill-opacity="0.15"/>
</g>
<defs>
<linearGradient id="paint0_linear_623_4298" x1="267.257" y1="9.12402" x2="267.257" y2="116.89" gradientUnits="userSpaceOnUse">
<stop stop-color="#3F3F3F"/>
<stop offset="1"/>
</linearGradient>
<linearGradient id="paint1_linear_623_4298" x1="360.401" y1="117.432" x2="360.401" y2="561.275" gradientUnits="userSpaceOnUse">
<stop stop-color="#3F3F3F"/>
<stop offset="1"/>
</linearGradient>
<linearGradient id="paint2_linear_623_4298" x1="88.5968" y1="49.7139" x2="88.5968" y2="135.365" gradientUnits="userSpaceOnUse">
<stop stop-color="#3F3F3F"/>
<stop offset="1"/>
</linearGradient>
<linearGradient id="paint3_linear_623_4298" x1="111.591" y1="158.276" x2="111.591" y2="583.707" gradientUnits="userSpaceOnUse">
<stop stop-color="#3F3F3F"/>
<stop offset="1"/>
</linearGradient>
<linearGradient id="paint4_linear_623_4298" x1="242.658" y1="145.13" x2="242.658" y2="576.934" gradientUnits="userSpaceOnUse">
<stop stop-color="#3F3F3F"/>
<stop offset="1"/>
</linearGradient>
<linearGradient id="paint5_linear_623_4298" x1="438.333" y1="18.5381" x2="438.333" y2="134.065" gradientUnits="userSpaceOnUse">
<stop stop-color="#3F3F3F"/>
<stop offset="1"/>
</linearGradient>
<clipPath id="clip0_623_4298">
<rect width="560" height="585" fill="white" transform="matrix(-1 -8.74228e-08 -8.74228e-08 1 560 0)"/>
</clipPath>
</defs>
</svg>

<svg width="560" height="585" viewBox="0 0 560 585" fill="none" xmlns="http://www.w3.org/2000/svg"><g clip-path="url(#clip0_623_4298)" fill-rule="evenodd" clip-rule="evenodd" fill-opacity=".15"><path d="M228.235 108.778c-6.558 2.122-12.28 4.925-17.256 8.112C216.506 63.8 238.56-15.982 323.118 16.776c7.063 2.736-77.588 22.898-94.884 92.002h.001z" fill="url(#paint0_linear_623_4298)"/><path d="M355.707 560.048c15.617-13.96 27.769-33.002 34.556-57.818 29.13-106.508-32.281-173.067-84.68-219.186-17.359-15.284-23.015-30.668-28.132-48.04-4.019-13.625-7.686-28.349-14.662-44.928-11.161-26.532-32.701-43.553-55.566-52.12 7.619-8.083 18.989-15.718 35.638-18.421 35.479-5.76 81.267-3.484 111.839 56.882 30.571 60.37 44.501 72.575 110.021 132.936 65.523 60.361 55.537 136.23 25.713 182.627-29.218 45.467-76.802 75.896-134.733 68.068h.006z" fill="url(#paint1_linear_623_4298)"/><path d="M162.622 131.736C138.041 85.497 83.068 8.498 14.812 76.75c-5.731 5.731 92.549-12.68 132.412 58.615 5.438-1.946 8.964-2.673 8.964-2.673l.171-.038a73.737 73.737 0 016.261-.919l.002.001z" fill="url(#paint2_linear_623_4298)"/><path d="M110.537 158.276c-16.207 6.212-31.878 15.238-40.98 28.249-36.67 52.455-15.389 96.514-25.112 132.979-9.724 36.462-42.78 86.351-36.256 135.963 8.174 62.153 43.132 117.142 130.242 124.938 32.43 2.902 57.558 3.667 77.408 3.153-24.348-6.875-47.262-18.379-65.629-33.315-30.676-24.945-45.211-59.697-52.078-91.823-8.814-41.243-4.867-73.004-1.458-106.111 3.128-30.366 5.706-61.961-5.02-104.7-7.206-28.713-4.057-50.379 3.303-66.686 4.094-9.076 9.574-16.532 15.58-22.639v-.008z" fill="url(#paint3_linear_623_4298)"/><path d="M149.919 149.102c-19.197 7.234-60.937 30.73-44.781 95.118 22.438 89.408-10.322 132.177 6.587 211.284 6.265 29.319 19.26 61.176 47.258 83.949 64.71 52.626 190.561 58.967 217.882-40.892 27.309-99.859-31.332-161.84-80.457-205.093-32.94-28.996-29.552-57.914-46.423-98.013-15.91-37.818-56.43-53.073-85.803-49.924 15.969 23.621 112.491 174.394 116.79 374.333.087 3.834-2.962 7.017-6.796 7.101a6.958 6.958 0 01-7.101-6.805c-4.595-213.498-116.426-369.766-116.426-369.766a6.517 6.517 0 01-.727-1.295l-.003.003zm49.898 203.938c3.647-1.128 7.682-.543 11.429 1.888 3.885 2.519 7.594 7.301 9.503 13.471 1.913 6.174 1.541 12.218-.243 16.491-1.72 4.123-4.715 6.875-8.37 8.007-3.647 1.128-7.682.543-11.429-1.888-3.885-2.518-7.594-7.297-9.503-13.471-1.908-6.173-1.541-12.218.243-16.482 1.721-4.131 4.716-6.884 8.37-8.012v-.004zm77.1-9.444c3.646-1.128 7.681-.543 11.428 1.888 3.885 2.519 7.594 7.297 9.503 13.471 1.909 6.174 1.541 12.218-.242 16.482-1.721 4.123-4.716 6.884-8.371 8.012-3.647 1.128-7.681.543-11.429-1.888-3.884-2.519-7.594-7.301-9.502-13.476-1.909-6.165-1.542-12.209.242-16.482 1.721-4.123 4.716-6.884 8.371-8.007z" fill="url(#paint4_linear_623_4298)"/><path d="M316.742 80.183c2.205-.593 20.617-5.439 46.214-8.225.43.192.894.335 1.383.43 0 0 31.582 6.391 58.231 31.909a6.957 6.957 0 009.828-.209c2.649-2.774 2.557-7.18-.217-9.828-11.508-11.02-23.846-18.83-34.656-24.257 30.066-.029 63.628 4.628 91.542 20.346 3.342 1.884 7.581.693 9.465-2.648a6.955 6.955 0 00-2.644-9.47c-17.347-9.765-36.749-15.542-56.263-18.675a50.263 50.263 0 0117.242-4.365 6.95 6.95 0 006.449-7.414 6.95 6.95 0 00-7.414-6.45c-19.694 1.367-33.144 11.525-37.952 15.76-46.072-3.22-88.631 5.764-101.304 8.793 17.318-16.069 77.229-64.455 149.137-41.072 36.757 11.95 59.184 34.873 79.446 71.464 11.173 20.174 14.791 37.793 14.791 37.793s-46.206-27.059-94.237-10.717c-48.023 16.348-96.113 4.202-114.32-7.933-13.308-8.876-27.309-24.477-34.719-35.236l-.002.004z" fill="url(#paint5_linear_623_4298)"/></g><defs><linearGradient id="paint0_linear_623_4298" x1="267.257" y1="9.124" x2="267.257" y2="116.89" gradientUnits="userSpaceOnUse"><stop stop-color="#3F3F3F"/><stop offset="1"/></linearGradient><linearGradient id="paint1_linear_623_4298" x1="360.401" y1="117.432" x2="360.401" y2="561.275" gradientUnits="userSpaceOnUse"><stop stop-color="#3F3F3F"/><stop offset="1"/></linearGradient><linearGradient id="paint2_linear_623_4298" x1="88.597" y1="49.714" x2="88.597" y2="135.365" gradientUnits="userSpaceOnUse"><stop stop-color="#3F3F3F"/><stop offset="1"/></linearGradient><linearGradient id="paint3_linear_623_4298" x1="111.591" y1="158.276" x2="111.591" y2="583.707" gradientUnits="userSpaceOnUse"><stop stop-color="#3F3F3F"/><stop offset="1"/></linearGradient><linearGradient id="paint4_linear_623_4298" x1="242.658" y1="145.13" x2="242.658" y2="576.934" gradientUnits="userSpaceOnUse"><stop stop-color="#3F3F3F"/><stop offset="1"/></linearGradient><linearGradient id="paint5_linear_623_4298" x1="438.333" y1="18.538" x2="438.333" y2="134.065" gradientUnits="userSpaceOnUse"><stop stop-color="#3F3F3F"/><stop offset="1"/></linearGradient><clipPath id="clip0_623_4298"><path fill="#fff" transform="matrix(-1 0 0 1 560 0)" d="M0 0h560v585H0z"/></clipPath></defs></svg>
